X:1
T:Rally, Soldiers, One and All
T:Hubert Platt Main
T:Rally, Soldiers, One and All
T:Public Domain
T:Public Domain
C:Hubert Platt Main
Z:Public Domain
%%score ( 1 2 ) ( 3 4 )
L:1/8
M:4/4
K:Ab
V:1 treble 
V:2 treble 
V:3 bass 
V:4 bass 
V:1
 [CA]3 [DB] [Ec]2 [Ec]2 | (c>B) (c>d) [Ae]4 | [EA]3 [EB] [Ec]2 [Ec]2 | [EB]2 [=DA]2 [EB]4 | %4
w: 1.~Ral- ly, sol- diers,|one * and * all,|an- swer du- ty’s|call; Where our|
w: 2.~Ral- ly, sol- diers,|one * and * all,|Gos- pel trum- pet|call; Brave- ly,|
w: 3.~Ral- ly, sol- diers,|one * and * all,|nei- ther faint nor|fall; If we|
 (A>G) (A>B) [Ec]2 [Ec]2 | (B>A) (B>c) [Gd]2 [Ed]2 | (c>B) (c>d) [Ae]3 [EA] | [CA]2 [DB]2 [CA]4 || %8
w: lead- * er * bids us|We * will * go with-|lay. * * * * *||
w: no- * bly * fight the|Of * our * Lord and|King. * Up * the mount-|ged steep, O’er|
w: hope * to * wear tri-|Crowns * of * glo- ry|sky. * * * * *||
"^Refrain" [EB]2 (G>A) [EB]2 [EB]2 | [Ec]2 [Ee]2 [EB]4 | [Ec]2 [Ec]2 [Ee]2 [EB]2 | (E2 z) F E4 x | %12
w: ||||
w: the o- * cean vast|deep, Where our|lead- er bids us|fol- low We|
w: ||||
 (A>G) (A>B) [Ec]2 [Ec]2 | (B>A) (B>c) [Gd]2 [Ed]2 | (c>B) (c>d) [Ae]3 [EA] | [CA]2 [DB]2 [CA]4 |] %16
w: ||||
w: with- * out * de- lay.||||
w: ||||
V:2
 x8 | E2 E2 x4 | x8 | x8 | E2 E2 x4 | E2 E2 x4 | E2 E2 x4 | x8 || x2 E2 x4 | x8 | x8 | %11
w: |Haste to|||fol- low|out de-||||||
w: |Hear the|||bat- tles|Sav- ior-|ain’s rug-||and|||
w: |We must|||umph- ant|in the||||||
 G3 (=D2 E4) | E2 E2 x4 | E2 E2 x4 | E2 E2 x4 | x8 |] %16
w: |||||
w: will go *|||||
w: |||||
V:3
 [A,,A,]3 [A,,A,] [A,,A,]2 [A,,A,]2 | ([E,A,]>[D,G,]) ([C,A,]>[B,,B,]) [A,,C]4 | %2
 [C,A,]3 [E,G,] A,2 A,2 | [G,B,]2 [F,B,]2 E,2 D,2 | %4
 ([C,A,]>[D,B,]) ([C,A,]>[B,,G,]) [A,,A,]2 [A,,A,]2 | (G,>F,) (G,>A,) [E,B,]2 [G,B,]2 | %6
 (A,>[E,G,]) [C,A,]>[B,,B,] [A,,C]3 [C,A,] | [E,A,]2 [E,G,]2 [A,,A,]4 || %8
 [E,G,]2 (B,>A,) [E,G,]2 [E,G,]2 | [A,,A,]2 [C,A,]2 [E,G,]4 | A,2 A,2 [G,B,]2 [E,G,]2 | %11
 (B,,2 z) A, E,2 D,2 x | ([C,A,]>[D,B,]) ([C,A,]>[B,,G,]) [A,,A,]2 [A,,A,]2 | %13
 (G,>F,) (G,>A,) [E,B,]2 [G,B,]2 | (A,>[E,G,]) ([C,A,]>[B,,B,]) [A,,C]3 [C,A,] | %15
 [E,A,]2 [E,G,]2 [A,,A,]4 |] %16
V:4
 x8 | x8 | x4 A,2 A,2 | x4 G,4 | x8 | E,2 E,2 x4 | A,3/2 x13/2 | x8 || x2 E,2 x4 | x8 | %10
 A,2 A,2 x4 | B,3 (B,,2 G,4) | x8 | E,2 E,2 x4 | A,3/2 x13/2 | x8 |] %16

